svg/fluentui-system-icons/ic_fluent_location_add_right_20_regular.svg

<svg width="20" height="20" viewBox="0 0 20 20" fill="none" xmlns="http://www.w3.org/2000/svg">
<path d="M14.9497 4.05115C17.6834 6.78601 17.6834 11.2201 14.9497 13.955L13.8223 15.0691L11.3861 17.4391C10.6562 18.1455 9.52168 18.1847 8.74691 17.5567L8.61408 17.4389L6.57128 15.4538L5.05025 13.955C2.31658 11.2201 2.31658 6.78601 5.05025 4.05115C7.78392 1.31628 12.2161 1.31628 14.9497 4.05115ZM14.245 4.75619C11.9006 2.41072 8.09944 2.41072 5.75499 4.75619C3.47065 7.04153 3.41208 10.7104 5.57927 13.0667L5.75499 13.2499L6.3263 13.817L9.30713 16.7224L9.40012 16.802C9.7543 17.0698 10.2459 17.0699 10.6002 16.8021L10.6931 16.7225L12.9237 14.5539L14.245 13.2499L14.4207 13.0667C16.5879 10.7104 16.5294 7.04153 14.245 4.75619ZM10.1464 6.35355C9.95118 6.15829 9.95118 5.84171 10.1464 5.64645C10.3417 5.45118 10.6583 5.45118 10.8536 5.64645L13.3536 8.14645C13.4473 8.24021 13.5 8.36739 13.5 8.5C13.5 8.63261 13.4473 8.75979 13.3536 8.85355L10.8536 11.3536C10.6583 11.5488 10.3417 11.5488 10.1464 11.3536C9.95118 11.1583 9.95118 10.8417 10.1464 10.6464L11.7929 9H7C6.72386 9 6.5 8.77614 6.5 8.5C6.5 8.22386 6.72386 8 7 8H11.7929L10.1464 6.35355Z" fill="#212121"/>
</svg>

<svg xmlns="http://www.w3.org/2000/svg" width="20" height="20"><path d="M14.95 4.051a7.005 7.005 0 0 1 0 9.904l-1.128 1.114-2.436 2.37a1.993 1.993 0 0 1-2.64.118l-.132-.118-2.043-1.985-1.52-1.499a7.005 7.005 0 0 1 0-9.904 6.998 6.998 0 0 1 9.899 0Zm-.705.705a6.002 6.002 0 0 0-8.49 0 6.008 6.008 0 0 0-.176 8.31l.176.184.571.567 2.981 2.905.093.08a.997.997 0 0 0 1.2 0l.093-.08 2.23-2.168 1.322-1.304.176-.183a6.008 6.008 0 0 0-.176-8.31Zm-4.099 1.598a.5.5 0 0 1 .708-.708l2.5 2.5a.5.5 0 0 1 0 .708l-2.5 2.5a.5.5 0 0 1-.708-.708L11.793 9H7a.5.5 0 0 1 0-1h4.793l-1.647-1.646Z"/></svg>
